train-car-caboose.svg

<svg fill="currentColor" viewBox="0 0 24 24"><path d="M23 9V7h-8V6h1V4H8v2h1v1H1v2h1v6H1v2h1a2 2 0 1 0 4 0h12a2 2 0 1 0 4 0h1v-2h-1V9zM4 15H3V9h1zm7-3H6V9h5zm7 0h-5V9h5zm3 3h-1V9h1z"/></svg>

<svg  viewBox="0 0 24 24" fill="currentColor"><path  d="M23 9V7H15V6H16V4H8V6H9V7H1V9H2V15H1V17H2C2 18.11 2.9 19 4 19S6 18.11 6 17H18C18 18.11 18.9 19 20 19S22 18.11 22 17H23V15H22V9H23M4 15H3V9H4V15M11 12H6V9H11V12M18 12H13V9H18V12M21 15H20V9H21V15Z"/></svg>
